packages/symbols/svgs/outline/astronomy-outline.svg

<svg width="24" height="24" viewBox="0 0 24 24" fill="none" xmlns="http://www.w3.org/2000/svg">
<path fill-rule="evenodd" clip-rule="evenodd" d="M21.8313 1.19248C22.0558 1.33367 22.215 1.55827 22.2739 1.81687L23.7329 8.22087C23.8556 8.75932 23.5186 9.29528 22.9801 9.418L15.1221 11.209C14.5837 11.3317 14.0476 10.9947 13.9249 10.4562C13.8022 9.91775 14.1392 9.38174 14.6777 9.25901L21.5608 7.69021L20.546 3.23619L5.67019 6.62582L6.68564 11.0799L8.83178 10.591C9.37027 10.4683 9.90625 10.8054 10.0289 11.3439C10.1516 11.8824 9.81451 12.4184 9.27602 12.541L6.15502 13.252C5.6166 13.3747 5.08067 13.0377 4.95792 12.4993L3.49792 6.09528C3.43896 5.83668 3.48516 5.56525 3.62634 5.34071C3.76753 5.11618 3.99213 4.95692 4.25074 4.898L21.0767 1.064C21.3353 1.00507 21.6067 1.05129 21.8313 1.19248Z" fill="black"/>
<path fill-rule="evenodd" clip-rule="evenodd" d="M1.01972 7.03901C1.5582 6.9163 2.09421 7.25334 2.21692 7.79182L3.10592 11.6928C3.22864 12.2313 2.89159 12.7673 2.35311 12.89C1.81463 13.0127 1.27863 12.6757 1.15592 12.1372L0.266916 8.23621C0.144202 7.69773 0.481246 7.16172 1.01972 7.03901Z" fill="black"/>
<path fill-rule="evenodd" clip-rule="evenodd" d="M12 9C10.8954 9 10 9.89543 10 11C10 12.1046 10.8954 13 12 13C13.1046 13 14 12.1046 14 11C14 9.89543 13.1046 9 12 9ZM8 11C8 8.79086 9.79086 7 12 7C14.2091 7 16 8.79086 16 11C16 13.2091 14.2091 15 12 15C9.79086 15 8 13.2091 8 11Z" fill="black"/>
<path fill-rule="evenodd" clip-rule="evenodd" d="M11.0448 12.7521C11.5297 13.0166 11.7083 13.6241 11.4438 14.1089L6.87782 22.4789C6.61333 22.9637 6.00588 23.1424 5.52105 22.8779C5.03621 22.6134 4.85759 22.0059 5.12207 21.5211L9.68807 13.1511C9.95256 12.6663 10.56 12.4877 11.0448 12.7521Z" fill="black"/>
<path fill-rule="evenodd" clip-rule="evenodd" d="M12.9551 12.7521C13.44 12.4877 14.0474 12.6663 14.3119 13.1511L18.8779 21.5211C19.1424 22.0059 18.9638 22.6134 18.4789 22.8779C17.9941 23.1424 17.3866 22.9637 17.1222 22.4789L12.5562 14.1089C12.2917 13.6241 12.4703 13.0166 12.9551 12.7521Z" fill="black"/>
</svg>

<svg width="24" height="24" viewBox="0 0 24 24" xmlns="http://www.w3.org/2000/svg"><path fill-rule="evenodd" clip-rule="evenodd" d="M21.831 1.192a1 1 0 0 1 .443.625l1.459 6.404a1 1 0 0 1-.753 1.197l-7.858 1.791a1 1 0 0 1-.444-1.95L21.56 7.69l-1.015-4.454L5.67 6.626l1.016 4.454 2.146-.489a1 1 0 1 1 .444 1.95l-3.121.711a1 1 0 0 1-1.197-.753l-1.46-6.404a1 1 0 0 1 .753-1.197l16.826-3.834a1 1 0 0 1 .754.128ZM1.02 7.039a1 1 0 0 1 1.197.753l.889 3.9a1 1 0 1 1-1.95.445l-.89-3.9a1 1 0 0 1 .754-1.198Z"/><path fill-rule="evenodd" clip-rule="evenodd" d="M12 9a2 2 0 1 0 0 4 2 2 0 0 0 0-4Zm-4 2a4 4 0 1 1 8 0 4 4 0 0 1-8 0Z"/><path fill-rule="evenodd" clip-rule="evenodd" d="M11.045 12.752a1 1 0 0 1 .399 1.357l-4.566 8.37a1 1 0 0 1-1.756-.958l4.566-8.37a1 1 0 0 1 1.357-.399Zm1.91 0a1 1 0 0 1 1.357.4l4.566 8.37a1 1 0 1 1-1.756.957l-4.566-8.37a1 1 0 0 1 .4-1.357Z"/></svg>
